X:1
T:Michael archangele
T:Claudin de Sermisy (c. 1490 – 1562)
T:Michael archangele
T:Copyright © 
T:Copyright © 
T:Copyright © 
T:Copyright © 
T:Copyright © 
T:Copyright © 
C:Claudin de Sermisy (c. 1490 – 1562)
Z:Copyright ©
%%score [ 1 2 3 4 ]
L:1/8
M:2/2
K:F
V:1 treble nm="Superius" snm="S."
V:2 treble-8 transpose=-12 nm="Contra- tenor" snm="A."
V:3 treble-8 transpose=-12 nm="Tenor" snm="T."
V:4 bass nm="Bassus" snm="B."
V:1
 F8 | A4 G4 | c6 B2 | A2 G2 F3 G | AB A3 G FE | F4 E4- | E8- | E4 z4 | z4 G4 | A6 G2 | F2 F2 E4- | %11
w: Mi-|chael ar-|chan- ge-|||* le,|_||ve-|ni in|ad- iu- to-|
 E2 E2 F4 | z4 G4 | A6 A2 | B2 B2 A2 G2 | c3 B AG B2- | BA GF ED E2 | F2 AG AB c2- | c2 B2 c4- | %19
w: * ri- um,|ve-|ni\_in ad-|iu- to- ri- um,|ad- iu- * * to-|||* ri- um|
 c4 z4 | z2 A4 B2 | c3 B A2 G2- | GF F4 E2 | F4 z2 F2- | F2 F2 G4 | A4 F3 G | A2 B4 A2- | %27
w: _|po- pu-|lo, _ po- pu-|* lo de- *|i. Glo-|* ri- o-|sus e- *||
 A2 G2 A4- | A4 z2 A2- | A2 A2 G2 A2 | F3 G A4 | G4 z2 G2- | G2 G2 F4 | E4 G4 | A2 c3 B AG | %35
w: * * nim|_ ap-|* pa- ru- i-||sti in|_ con- spec-|tu do-|mi- * * * *|
 FE DC DE F2- | FE FG AB c2- | c2 B2 c4- | c4 z4 | z8 | z8 | z8 | z8 | z8 | z8 | z8 | z8 | z8 | %48
w: ||* * ni.|_||||||||||
 z8 | z8 | z2 A4 A2 | c4 G2 B2- | B2 A2 G4 | F4 E3 D | E2 F2 GD G2- | GF F4 E2 | F4 z2 c2 | %57
w: ||in con-|spec- tu do-|* * mi-||||ni, pro-|
 c2 c2 A4 | FG AF G2 A2 | G2 F2 E4 | D4 z2 F2- | F2 F2 F4 | A4 G4 | F8 | E8 | z4 G4 | A6 G2 | %67
w: pte- re- a|de- * * * * *|* * co-|rem. In-|* du- it|te _|de-|us,|ve-|ni in|
 F2 F2 E4- | E2 E2 F4 | z4 G4 | A6 A2 | B2 B2 A2 G2 | c3 B AG B2- | BA GF ED E2 | F2 AG AB c2- | %75
w: ad- iu- to-|* ri- um,|ve-|ni in|ad- iu- to- ri-||||
 c2 B2 c4- | c4 z4 | z2 A4 B2 | c3 B A2 G2- | GF F4"^" E2 ||[M:3/2]"^" F8 E4 | E8 F4 | F8 F4 | %83
w: * * um.|_|po- pu-|lo _ _ de-||i, ve-|ni, ve-|ni in|
 F8 E4 | F8 F4 | E8 z4 | G8 B4 | A4 G6 F2 | F8 E4 | F16 |] %90
w: ad- ju-|to- ri-|um|po- pu-|lo de- *||i.|
V:2
 F8 | F4 c4 | A4 c4- | c4 d4 | c8- | c8 | z8 | z4 A4 | c8 | z2 A2 c4 | d4 c3 B | A2 G2 F4 | z8 | %13
w: Mi-|chael ar-|chan- ge-||le,|_||ve-|ni,|ve- ni|in ad- iu-|to- ri- um,||
 z2 c2 f4- | f2 f2 e4- | e2 e2 f3 e | d4 c4 | z2 f4 f2 | e2 d2 e2 c2- | cBAG A4 | f6 f2 | %21
w: ve- ni|_ in ad-|* iu- to- *|ri- um|po- pu-|lo se- i, po-|* pu- lo de- i,|po- pu-|
 e2 f2 c2 e2- | edcB c4 | A4 z2 B2- | B2 B2 A4 | G2 c4 BA | Bc dB c2 d2- | d2 c2 B4 | A4 z2 d2- | %29
w: lo de- i, po-|* pu- lo de- *|i. Glo-|* ri- o-|sus e- * *|||nim ap-|
 d2 d2 c2 d2 | B3 c d4 | c4 z2 c2- | c2 c2 B4 | A4 c4 | B2 c3 B AG | F3 G A2 B2- | Bc d3 c de | %37
w: * pa- ru- i-||sti in|_ con- spec-|tu do-|mi- * * * *|||
 fe dc d4 | c4 z4 | z8 | z8 | z8 | z8 | z8 | z8 | z8 | z8 | z8 | z8 | z4 z2 c2- | c2 c2 d4 | %51
w: |ni.|||||||||||in|_ con- spec-|
 c4 z4 | z8 | z2 A4 A2 | c4 F2 B2- | B2 A2 G4 | F2 c2 c2 c2 | A4 c4 | de fd e2 f2 | ed d4 c2 | %60
w: tu,||in con-|spec- tu do-|* mi- ni|prop- te- re- a|de- co-|||
 d4 z2 d2- | d2 d2 c4 | f4 e2 c2- | c2 BA B4 | c4 z4 | A4 c4 | z2 A2 c4 | d4 c3 B | A2 G2 F4 | z8 | %70
w: rem in-|* du- it|te de- *||us.|Ve- ni,|ve- ni|in ad- iu-|to- ri- um,||
 c4 f4- | f2 f2 e4- | e2 e2 f3 e | d4 c4 | z2 f4 f2 | e2 d2 e2 c2- | cB AG A4 | f6 f2 | %78
w: ve- ni|_ in ad-|* iu to- *|ri- um|po- pu-|lo de- * *|* * * * i,|po- pu-|
 e2 f2 c2 e2- | ed cB c4 ||[M:3/2] A8 c4 | c8 d4 | d8 d4 | d4 d4 B4 | c4 c8 | B4 c8 | z4 e8 | %87
w: lo de- * *||i, ve-|ni, ve-|ni ve-|ni in ad-|iu- to-|ri- um|po-|
 f4 f3 e3 d2- | d B3 c8 | A16 |] %90
w: pu- lo de- *||i|
V:3
 z8 | z8 | z8 | z8 | F8 | A4 G4 | c6 B2 | A2 G2 F4 | G8 | z8 | D4 A4 | z4 A4 | c8 | z2 A2 d4 | %14
w: ||||Mi-|chael ar-|chan- *|* * ge-|le,||ve- ni,|ve-|ni,|ve- ni|
 d4 c3 B | A2 G2 F4 | z2 G4 G2 | A4 F4 | G4 C2 F2- | F2 c3 BAG | AG FE F4 | G2 c4 c2 | B2 A2 G4 | %23
w: in ad- iu-|to- ri- um|po- pu-|lo de-|* i, ve-|* ni in ad- iu-|to- ri- * * um|_ po- pu-|lo de- *|
 F8- | F8 | z8 | z8 | z8 | z8 | z8 | z8 | z8 | z8 | z8 | z8 | z8 | z2 B4 B2 | A4 G4 | A3 B c2 d2- | %39
w: i.|_||||||||||||Glo- ri-|o- sus|e- * * *|
 dc c4 B2 | c8 | z2 c4 c2 | A2 c3 B AG | FG AB c2 d2- | d2 cB A2 B2- | B2 A4 G2 | A8 | z2 A4 A2 | %48
w: |nim|ap- pa-|ru- i- * * *||||sti|in con-|
 c4 G2 B2- | BA GF G4 | F4 z4 | z8 | z2 c4 c2 | d4 c3 B | AG F2 BA GF | E2 F2 C4 | F8 | z8 | %58
w: spec- tu do-|* * * * mi-|ni||in con-|spec- tu _|_ _ _ do- * * *|* * mi-|ni,||
 z4 c2 c2 | c2 A4 A2 | B4 A4 | z2 A4 A2 | A4 c3 B | A3 G F4 | G4 z2 G2 | c4 z4 | z8 | D4 A4 | %68
w: prop- te-|re- a de-|co- rem|in- du-|it te _|de- * *|us, ve-|ni,||ve- ni,|
 z4 A4 | c8 | z2 A2 d4 | d4 c3 B | A2 G2 F4 | z2 G4 G2 | A4 F4 | G4 C2 F2- | F2 c3 B AG | %77
w: ve-|ni,|ve- ni|in ad- iu-|to- ri- um|po- pu-|lo de-|* * i,|_ po- pu- lo _|
 AG FE F4 | G2 c4 c2 | B2 A2 G4 ||[M:3/2] F8 G4 | G8 B4 | B8 B4 | A4 F4 G4 | A8 F4 | G8 z4 | %86
w: _ _ _ _ _|de- i, po-|pu- lo de-|i. Ve-|ni, ve-|ni in|ad- * iu-|to- ri-|um|
 c8 d4 | c8 A4 | F4 G8 | F16 |] %90
w: po- pu-|lo de-||i.|
V:4
 z8 | z8 | z8 | z8 | F,,8 | F,,4 C,4 | A,,4 C,4- | C,4 D,4 | C,8 | F,,8 | z4 A,,4 | %11
w: ||||Mi-|chael ar-|* chan-|* ge-||le,|Ve-|
 C,2 C,2 D,2 D,2 | C,2 F,4 E,2 | F,3 E, D,3 C, | B,,4 z2 C,2- | C,2 C,2 D,4 | B,,4 C,4 | F,,8 | %18
w: ni in ad- iu-|* to- ri-|um _ _ _|_ po-|* pu- lo|de- *|i,|
 z8 | z4 z2 F,2- | F,E, D,C, D,4 | C,2 F,,G,, A,,B,, C,D, | E,2 F,2 C,4 | D,6 B,,2- | %24
w: |po-||pu- lo _ _ _ _ _|_ _ _|de- *|
 B,,A,,B,, A,,/G,,/ F,,4 | z8 | z8 | z8 | z8 | z8 | z8 | z8 | z8 | z8 | z8 | z8 | z8 | z8 | %38
w: * * * * * i.||||||||||||||
 z2 F,4 F,2 | E,4 D,4 | C,3 D, E,2 F,2- | F,2 E,2 F,4 | z2 F,4 F,2 | D,2 F,3 E, D,C, | %44
w: Glo- ri-|o- sus|e- nim _ _|_ _ _|ap- pa-|ru- i- * * *|
 B,,C, D,E, F,2 D,2- | D,C, A,,2 B,,4 | A,,4 z2 D,2- | D,2 D,2 F,4 | C,3 D, E,F, G,2- | %49
w: ||sti in|_ con- spec-|tu _ _ _ do-|
 G,F, F,4 E,2 | F,4 D,2 F,2- | F,E, C,D, E,F, G,2 | D,2 F,2 E,4 | D,4 z4 | z8 | z8 | z8 | %57
w: * mi- ni, in|con- spec- tu|_ _ _ _ _ _ _|do- * mi-|ni,||||
 z2 F,2 F,2 F,2 | D,4 C,2 A,,2 | C,2 D,2 A,,4 | z2 D,4 D,2 | D,4 F,4- | F,4 C,4 | D,8 | C,8 | %65
w: Pro- pte- re-|a de- co-|* * rem|in- du-|it te|_ _|de-|us,|
 z4 C,4 | F,4 z4 | z4 A,,4 | C,2 C,2 D,2 D,2 | C,2 F,4 E,2 | F,3 E, D,3 C, | B,,4 z2 C,2- | %72
w: ve-|ni,|ve-|ni in ad- iu-|to- ri- um|_ _ _ _|* po-|
 C,2 C,2 D,4 | B,,4 C,4 | F,,8 | z8 | z4 z2 F,2- | F,E, D,C, D,4 | C,2 F,,G,, A,,B,, C,D, | %79
w: * pu- lo|de- *|i,||po-|* pu- * * lo|de- * * * * * *|
 E,2 F,2 C,4 ||[M:3/2] F,,8 z4 | C,4 C,8 | B,,4 B,,8 | B,,4 D,8 | C,4 F,8 | D,4 C,8 | z4 C,8 | %87
w: |i.|Ve- ni,|ve- ni,|in ad-|iu- ro-|ri- um|po-|
 C,4 F,4 C,4 | D,6 C,6 | F,,16 |] %90
w: pu- lo _|de- *|i.|

